X: 24625
T: Mac's Fancy
R: jig
M: 6/8
K: Amixolydian
|:eAA fed|eAA f2d|eAA gfe|dBG Ggf|
eAA fed|eAA f2d|a2f gfe|dBG GBd:|
|:A2a aea|aea aec|A2a aef|gdB GBd|
A2a aea|aea aef|gag gfe|dBG GBd:|

